X: 1
T: Hambo efter Kalle Alml\"of
R: hambo
S: Kalle Alml\"of (workshop)
N: Learned from Kalle Alml\"of Aug 1998
Z: 1998 by John Chambers <jc@trillian.mit.edu>
M: 3/4
L: 1/8
K: D
|: "D"f2 f>e d>B | A>B A>G F>A | "A7"G>F E2- E>A | "D"F>E D2- D2 \
|  "D"f2 f>e d>B | A>B A>G F>A | "A7"G>F E>A c>e | "D"d2 d4 :|
|: "G"B2 G>d c>B | "D"A2 D>F A>B | "A7"G2 A,>C E>G | "D"F2 D>F A2 \
|  "G"B2 G>d c>B | "D"A2 D>F A>B | "A7"G>E C>A, E>F | "D"D2 D4 :|

%%sep 1 1 500

